www/assets/icons/bedroom_baby.svg

<svg xmlns="http://www.w3.org/2000/svg" width="24" height="24" viewBox="0 0 24 24" fill='currentColor'><path d="M20 2H4c-1.1 0-2 .9-2 2v16c0 1.1.9 2 2 2h16c1.1 0 2-.9 2-2V4c0-1.1-.9-2-2-2m-8 16c-2.64 0-5.13-1.03-7-2.9l1.06-1.06c.34.34.71.65 1.1.92L8 13.5V9.51l-1.55.99-.95-1L7 7.76 6 7h3.65l1.73 3H17v1h-1v2.5l.84 1.46c.39-.28.76-.58 1.1-.92L19 15.1a9.84 9.84 0 0 1-7 2.9"/><path d="M14.69 14.24a7.72 7.72 0 0 1-5.4 0l-.81 1.41-.03.06c1.1.52 2.28.79 3.53.79s2.45-.28 3.55-.79l-.03-.06z"/></svg>

<svg width="24" height="24" viewBox="0 0 24 24" xmlns="http://www.w3.org/2000/svg" fill='currentColor'><path d="M20 2H4C2.9 2 2 2.9 2 4V20C2 21.1 2.9 22 4 22H20C21.1 22 22 21.1 22 20V4C22 2.9 21.1 2 20 2ZM12 18C9.36 18 6.87 16.97 5 15.1L6.06 14.04C6.4 14.38 6.77 14.69 7.16 14.96L8 13.5V9.51L6.45 10.5L5.5 9.5L7 7.76L6 7H9.65L11.38 10H17V11H16V13.5L16.84 14.96C17.23 14.68 17.6 14.38 17.94 14.04L19 15.1C17.13 16.97 14.64 18 12 18Z"/><path d="M14.69 14.24C12.95 14.89 11.03 14.89 9.29 14.24L8.48 15.65L8.45 15.71C9.55 16.23 10.73 16.5 11.98 16.5C13.23 16.5 14.43 16.22 15.53 15.71L15.5 15.65L14.69 14.24Z"/></svg>
